!! 00000] TT[WS
!!!OTL: Zheyizao zoule shenhuir jian
!!!ARE: Asia, China,ÿShanxi Hequ
!! Ethnic Group: Han
!! WI, 4
!!!SCT: J0004
!!!YEM: Copyright 1995, estate of Helmut Schaffrath.
**kern
*ICvox
*Ivox
*M2/4
*k[b-]
*F:
{8cc
8cc
4cc
=1
8cc
8cc
8g
16g
16d
=2
8g
16g
16cc
16g
16f
16d
16c
=3
2g}
=4
{8cc
8cc
4cc
=5
8cc
8cc
8g
16g
16d
=6
8g
16g
16cc
16g
16f
16d
16A
=7
2c}
==
!!!AGN: Shange, Shanqu. Qingge
!!!ONB: ESAC (Essen Associative Code) Database: CHINA
!!!AMT: simple duple
!!!AIN: vox
!!!EED: Helmut Schaffrath
!!!EEV: 1.0
*-
